client/resources/iconsets/breeze/src/svg/16x16/icon_save_white.svg

<svg xmlns="http://www.w3.org/2000/svg" width="16" height="16"><path d="M2 1a1 1 0 0 0-1 1v12a1 1 0 0 0 1 1h12a1 1 0 0 0 1-1V3l-2-2H2zm1 2h1v5h8V3h1v10H3V3zm3 0h2v4H6V3z" fill="#fff"/></svg>

<svg xmlns="http://www.w3.org/2000/svg" width="16" height="16" viewBox="0 0 16 16">
 <path style="fill:#ffffff" 
       d="M 2 1 C 1.446 1 1 1.446 1 2 L 1 14 C 1 14.554 1.446 15 2 15 L 14 15 C 14.554 15 15 14.554 15 14 L 15 3 L 13 1 L 2 1 z M 3 3 L 4 3 L 4 8 L 12 8 L 12 3 L 13 3 L 13 13 L 3 13 L 3 3 z M 6 3 L 8 3 L 8 7 L 6 7 L 6 3 z "
       />
</svg>
